dist/svgs/crypto-icons/icons/etc.svg

<?xml version="1.0" encoding="UTF-8" standalone="yes"?>
<svg xmlns="http://www.w3.org/2000/svg" xmlns:xlink="http://www.w3.org/1999/xlink" width="512px" height="512px" viewBox="0 0 384 384" version="1.1">
  <g id="surface1">
    <path style=" stroke:none;fill-rule:nonzero;fill:rgb(0%,0%,0%);fill-opacity:1;" d="M 79.675781 171.871094 L 192.847656 124.164062 L 302.464844 173.054688 L 192.675781 0 Z M 80.015625 224.816406 L 192.847656 290.285156 L 308.046875 224.816406 L 193.859375 383.660156 Z M 80.015625 224.816406 "/>
    <path style=" stroke:none;fill-rule:nonzero;fill:rgb(0%,0%,0%);fill-opacity:1;" d="M 193.351562 147.511719 L 75.617188 197.074219 L 193.351562 262.539062 L 307.875 198.597656 Z M 193.351562 147.511719 "/>
  </g>
</svg>

<svg xmlns="http://www.w3.org/2000/svg" viewBox="0 0 384 384"><path d="M79.676 171.871l113.172-47.707 109.617 48.89L192.675 0zm.34 52.945l112.832 65.47 115.199-65.47L193.859 383.66zm0 0"/><path d="M193.352 147.512L75.617 197.074l117.735 65.465 114.523-63.941zm0 0"/></svg>
